X:1
T:Title
%%score [ ( 1 2 ) ( 3 4 ) ] { ( 5 6 ) | ( 7 8 ) }
L:1/8
Q:1/4=120
M:4/4
K:Bb
V:1 treble nm="Midi_74"
V:2 treble 
V:3 bass nm="Midi_74"
V:4 bass 
V:5 treble nm="Org."
V:6 treble 
V:7 bass 
V:8 bass 
V:1
 d8 | c4 c4 | B8 || B8 | B4 B4 | c4 c4 | d8 || B8 | A4 A4 | G8 || G8 | %11
 G4"^William Henry Havergal\n(1793-1870)" G4 | A4 A4 | B8 |] %14
V:2
 F8 | F4 E4 | D8 || E8 | F4 E4 | E4 G4 | ^F8 || G8 | G4 ^F4 | G8 || E8 | F4 E4 | E4 E4 | D8 |] %14
V:3
 B,8 | B,4 A,4 | B,8 || G,8 | _A,4 G,4 | G,4 G,4 | =A,8 || (B,6 C2) | D4 C4 | B,8 || C8 | D4 C4 | %12
 C4 C4 | B,8 |] %14
V:4
 B,8 | F,4 F,4 | G,8 || E,8 | D,4 E,4 | C,4 E,4 | D,8 || G,8 | D,4 D,4 | E,8 || C,8 | =B,,4 C,4 | %12
 [F,,F,]4 F,4 | B,,8 |] %14
V:5
 d8 | c4 c4 | B8 || B8 | B4 B4 | c4 c4 | d8 || B8 | A4 A4 | G8 || G8 | G4 G4 | A4 A4 | B8 |] %14
V:6
 [FB]8 | [FB]4 [EA]4 | D8 || [EGB]8 | [F_A]4 [EG]4 | E4 G4 | ^F8 || [DG]8 | [DG]4 [C^F]4 | %9
 [B,G]8 || [CE]8 | [DF]4 [CE]4 | [CE]4 [CE]4 | [B,D]8 |] %14
V:7
 x8 | x8 | x8 || x8 | x8 | G,8 | A,8 || x8 | x8 | x8 || x8 | x8 | x8 | x8 |] %14
V:8
 B,8 | F,4 F,4 | G,8 || E,8 | D,4 E,4 | C,4 E,4 | D,8 || G,8 | D,4 D,4 | E,8 || C,8 | =B,,4 C,4 | %12
 [F,,F,]4 F,4 | B,,8 |] %14

